src/assets/filled/MusicLibrary2.svg

<svg width="24" height="24" viewBox="0 0 24 24"  xmlns="http://www.w3.org/2000/svg">
<path d="M17 4.75H16V3.26C16 2.43 15.32 1.75 14.49 1.75H9.51C8.68 1.75 8 2.43 8 3.26V4.75H7C5.9 4.75 5 5.65 5 6.75V6.88C5.32 6.79 5.65 6.75 6 6.75H18C18.35 6.75 18.68 6.79 19 6.88V6.75C19 5.65 18.1 4.75 17 4.75Z" />
<path d="M13.9301 16.9299C13.6101 16.9299 13.3601 17.1899 13.3601 17.4999C13.3601 17.8099 13.6201 18.0699 13.9301 18.0699C14.2401 18.0699 14.5001 17.8099 14.5001 17.4999C14.5001 17.1899 14.2401 16.9299 13.9301 16.9299Z" />
<path d="M9.07 17.8101C8.75 17.8101 8.5 18.0701 8.5 18.3801C8.5 18.6901 8.76 18.9501 9.07 18.9501C9.38 18.9501 9.64 18.6901 9.64 18.3801C9.64 18.0701 9.39 17.8101 9.07 17.8101Z" />
<path d="M19 8.38C18.68 8.29 18.35 8.25 18 8.25H6C5.65 8.25 5.32 8.29 5 8.38C3.28 8.83 2 10.4 2 12.25V18.25C2 20.45 3.8 22.25 6 22.25H18C20.2 22.25 22 20.45 22 18.25V12.25C22 10.4 20.72 8.83 19 8.38ZM16 13.28V17.5C16 18.64 15.07 19.57 13.93 19.57C12.79 19.57 11.86 18.64 11.86 17.5C11.86 16.36 12.79 15.43 13.93 15.43C14.13 15.43 14.32 15.47 14.5 15.52V14.26L11.15 15.17V18.38C11.15 18.39 11.15 18.4 11.14 18.41C11.13 19.54 10.2 20.46 9.07 20.46C7.93 20.46 7 19.53 7 18.38C7 17.23 7.93 16.31 9.07 16.31C9.27 16.31 9.46 16.35 9.65 16.4V14.6V13.05C9.65 12.19 10.19 11.49 11.01 11.27L13.66 10.54C14.51 10.31 15.05 10.53 15.35 10.76C15.65 10.99 16 11.44 16 12.33V13.28Z" />
</svg>

<?xml version="1.0" encoding="UTF-8"?>
<svg width="24" height="24" viewBox="0 0 24 24" xmlns="http://www.w3.org/2000/svg">
 <path d="m17 4.75h-1v-1.49c0-0.83-0.68-1.51-1.51-1.51h-4.98c-0.83 0-1.51 0.68-1.51 1.51v1.49h-1c-1.1 0-2 0.9-2 2v0.13c0.32-0.09 0.65-0.13 1-0.13h12c0.35 0 0.68 0.04 1 0.13v-0.13c0-1.1-0.9-2-2-2z"/>
 <path d="m13.93 16.93c-0.32 0-0.57 0.26-0.57 0.57s0.26 0.57 0.57 0.57 0.57-0.26 0.57-0.57-0.26-0.57-0.57-0.57z"/>
 <path d="m9.07 17.81c-0.32 0-0.57 0.26-0.57 0.57s0.26 0.57 0.57 0.57 0.57-0.26 0.57-0.57-0.25-0.57-0.57-0.57z"/>
 <path d="m19 8.38c-0.32-0.09-0.65-0.13-1-0.13h-12c-0.35 0-0.68 0.04-1 0.13-1.72 0.45-3 2.02-3 3.87v6c0 2.2 1.8 4 4 4h12c2.2 0 4-1.8 4-4v-6c0-1.85-1.28-3.42-3-3.87zm-3 4.9v4.22c0 1.14-0.93 2.07-2.07 2.07s-2.07-0.93-2.07-2.07 0.93-2.07 2.07-2.07c0.2 0 0.39 0.04 0.57 0.09v-1.26l-3.35 0.91v3.21c0 0.01 0 0.02-0.01 0.03-0.01 1.13-0.94 2.05-2.07 2.05-1.14 0-2.07-0.93-2.07-2.08s0.93-2.07 2.07-2.07c0.2 0 0.39 0.04 0.58 0.09v-3.35c0-0.86 0.54-1.56 1.36-1.78l2.65-0.73c0.85-0.23 1.39-0.01 1.69 0.22s0.65 0.68 0.65 1.57v0.95z"/>
</svg>
